X: 1
T: Guilderoy's Reel  v.2
P: piffero secondo a0719
O: Bob Hutchings
%R: reel
F: http://ancients.sudburymuster.org/mus/ssp/pdf/ShadydealF.pdf
Z: 2019 John Chambers <jc:trillian.mit.edu>
M: 2/4
L: 1/16
K: Amix
E2 |\
A2cd c2A2 | cdcA B2B2 | c2c2 ABc2 | B2BA G2F2 |\
A2cd c2A2 |
cdcA B2B2 | c2d2 BGE2 | A2E2 E2 :: c2 |\
B3B B2c2 | B3B B4 |
c2c2 ABc2 | B2BA G2F2 |\
A2cd c2A2 | cdcA B2B2 | c2d2 BGE2 | A2B2 A2 :|
